public/assets/svgs/emberconf.svg

<svg xmlns="http://www.w3.org/2000/svg" width="216" height="132" viewBox="0 0 216 132">
  <g fill="none" fill-rule="evenodd" transform="translate(0 -1)">
    <polygon fill="#E15D44" points="131.076 .999 0 52.155 5.083 103.979 150.758 132.158 215.982 100.288 203.821 57.608"/>
    <path fill="#FEFEFE" fill-rule="nonzero" d="M159.7715,100.9987 L199.5155,100.9987 L159.7715,109.7527 L159.7715,100.9987 Z M99.8164,100.9987 L99.8164,109.9637 L59.1154,100.9987 L99.8164,100.9987 Z M189.0093,73.3489 C189.2923,76.1659 187.6003,77.1299 187.6003,77.1299 C187.6003,77.1299 180.6243,82.3449 175.2723,80.7939 C169.9173,79.2439 169.6353,69.5789 169.6353,69.5789 L169.1403,69.5789 L163.7163,84.4709 C163.7163,84.4709 161.5343,91.9299 158.2923,90.5919 C155.0513,89.2519 155.1213,85.4449 155.1213,85.4449 C155.1213,85.4449 150.0503,91.2849 140.7483,90.5819 C132.6123,89.9659 129.9833,83.2959 129.9833,83.2959 C129.9833,83.2959 124.5453,87.3329 109.2523,90.3429 C102.4113,91.0879 97.5613,86.9099 97.5613,86.9099 C96.9263,87.5459 92.8403,89.4979 92.8403,89.4979 C92.8403,89.4979 86.9933,91.9999 84.7383,87.9149 C82.4843,83.8319 83.9633,70.5789 83.9633,70.5789 L83.5403,70.5789 C83.5403,70.5789 80.1583,77.8409 78.3963,84.0409 C76.6363,90.2409 74.4503,90.2379 74.4503,90.2379 C74.4503,90.2379 70.4363,90.5879 69.5203,87.2069 C68.6043,83.8249 71.0013,71.2809 71.0013,71.2809 L70.6473,71.3399 C70.6473,71.3399 70.4363,70.9719 67.3383,77.5269 C62.0533,90.3479 60.7853,90.8769 57.7553,90.3209 C54.7243,89.7629 54.5853,85.8779 54.5853,85.8779 L50.4293,88.0639 C50.4293,88.0639 40.2843,92.1659 35.0023,88.1519 C31.4833,85.4779 30.2793,82.5789 29.8643,79.5789 L29.8663,79.5789 C29.8663,79.5789 25.3673,79.6309 22.4783,78.5029 C19.5883,77.3739 22.5003,74.2469 22.5003,74.2469 C22.5003,74.2469 23.3883,72.8399 25.0783,74.2469 C26.7703,75.6539 29.9263,75.0199 29.9263,75.0199 C30.2073,72.7989 30.6763,69.8679 32.0533,66.7729 C34.9423,60.2899 39.3663,58.0999 42.9593,58.0289 C46.5513,57.9589 49.0893,58.9329 51.2733,62.0329 C56.1343,74.0819 38.3103,80.1809 38.3103,80.1809 C38.3103,80.1809 37.8163,83.3349 42.6773,83.2649 C47.5393,83.1969 54.9363,77.9099 54.9363,77.9099 C55.2893,73.8949 58.1073,61.2829 58.8813,59.3829 C59.6563,57.4789 62.6163,57.8319 62.6163,57.8319 C62.6163,57.8319 64.9413,57.3379 65.3633,59.8029 C65.7853,62.2699 63.6733,72.2739 63.6733,72.2739 L64.0243,72.6989 C64.2363,71.7109 69.3793,63.1159 69.3793,63.1159 C69.3793,63.1159 72.3383,57.9729 76.8483,58.1829 C81.3563,58.3939 76.6363,72.2059 76.6363,72.2059 L76.9883,72.6279 L77.3413,71.9929 C77.9053,70.4399 84.5973,60.2979 84.5973,60.2979 C84.5973,60.2979 87.1343,57.3379 89.4583,58.0419 C91.7823,58.7469 91.9243,59.8029 92.0663,61.7779 C92.2063,63.7489 90.2343,75.4429 90.2343,75.4429 C90.2343,75.4429 89.1063,83.1229 91.6423,82.9819 C94.1793,82.8439 96.9263,80.1659 96.9263,80.1659 C96.9263,80.1659 98.8993,65.0879 100.2383,52.6189 C101.5773,40.1479 107.3543,31.7639 107.3543,31.7639 C107.3543,31.7639 109.0433,29.1569 113.5083,27.3939 C116.4493,26.3579 119.6553,27.0479 121.1623,33.4549 C124.3333,46.9099 110.0313,62.8329 110.0313,62.8329 C110.0313,62.8329 113.8353,56.7749 118.6273,59.6639 C129.1943,66.2839 120.5293,80.8709 120.5293,80.8709 C123.6293,79.8839 129.1943,76.1499 129.1943,76.1499 C129.1943,76.1499 129.3073,74.5399 129.3713,74.1709 C131.2623,63.3379 137.7503,59.4279 138.9643,58.5129 C140.2213,57.5689 151.3163,53.3219 151.8093,64.8059 C152.3023,76.2899 137.9313,80.3059 137.9313,80.3059 C137.9313,80.3059 139.2013,83.6189 144.4833,82.7719 C149.7663,81.9279 155.8253,76.7839 155.8253,76.7839 C156.0363,72.0639 159.1383,60.7909 159.7713,59.1699 C160.4053,57.5499 164.2803,57.4789 164.7043,58.3939 C165.2673,60.2269 164.7723,68.2589 164.7723,68.2589 L165.1953,68.1169 C166.7473,63.5389 169.9863,59.9469 169.9863,59.9469 C169.9863,59.9469 172.5933,57.4099 174.7073,58.0259 C176.8203,58.6449 176.0473,66.0059 176.0473,66.0059 C176.0473,66.0059 174.9213,74.0409 178.5113,74.3939 C182.1043,74.7449 186.1913,71.5789 186.1913,71.5789 C186.1913,71.5789 188.7263,70.5279 189.0093,73.3489 Z M117.0039,104.0075 C116.8959,104.5785 116.5639,104.9105 116.0069,105.0025 L114.7789,105.0025 C114.1909,104.9425 113.8599,104.6165 113.7829,104.0295 L113.7829,103.1045 C113.6739,101.9445 113.0409,101.2945 111.8819,101.1565 C110.6619,101.2945 109.9969,101.9445 109.8889,103.1045 L109.8889,110.5415 C109.9969,111.7475 110.6619,112.4045 111.8819,112.5135 C113.0409,112.4045 113.6739,111.7475 113.7829,110.5415 L113.7829,109.5465 C113.8599,108.9595 114.2079,108.6355 114.8259,108.5715 L115.9619,108.5715 C116.5479,108.6505 116.8959,108.9745 117.0039,109.5465 L117.0039,110.5415 C116.6479,113.6325 114.9409,115.3175 111.8819,115.5945 C108.7609,115.3475 107.0759,113.6625 106.8289,110.5415 L106.8289,103.0325 C107.0619,99.9115 108.7459,98.1905 111.8819,97.8645 C114.9729,98.1905 116.6799,99.9115 117.0039,103.0325 L117.0039,104.0075 Z M124.3082,97.8651 C127.4152,98.1741 129.1222,99.8811 129.4312,102.9881 L129.4312,110.5421 C129.1072,113.6321 127.3992,115.3171 124.3082,115.5941 C121.2192,115.3011 119.5272,113.6181 119.2332,110.5421 L119.2332,102.9881 C119.4962,99.8811 121.1882,98.1741 124.3082,97.8651 Z M126.3022,110.5641 L126.3022,103.0801 C126.1772,101.8741 125.5142,101.2171 124.3082,101.1091 C123.1042,101.2331 122.4472,101.8901 122.3392,103.0801 L122.3392,110.5641 C122.4472,111.7701 123.1042,112.4131 124.3082,112.4911 C125.5142,112.4131 126.1772,111.7701 126.3022,110.5641 Z M141.9092,114.5748 C141.8942,115.1168 141.6162,115.3868 141.0752,115.3868 L140.9362,115.3868 L140.7512,115.3868 L139.8242,115.3868 L139.7312,115.3868 L139.5932,115.3868 C138.9582,115.4178 138.5182,115.1478 138.2702,114.5748 C137.1122,111.8558 135.9692,109.1368 134.8412,106.4168 L134.8412,112.7448 L134.8412,114.4138 C134.7792,115.0148 134.4552,115.3398 133.8672,115.3868 L132.6852,115.3868 C132.1292,115.3398 131.8202,115.0458 131.7582,114.5058 L131.7582,98.8148 L131.7582,98.7008 C131.7892,98.2348 132.0522,98.0268 132.5462,98.0738 L132.8702,98.0738 L133.7752,98.0738 L134.0072,98.0738 C134.6252,98.0268 135.0812,98.2988 135.3742,98.8838 C136.4862,101.6518 137.6222,104.4008 138.7802,107.1368 L138.7802,99.0478 C138.8432,98.4758 139.1672,98.1518 139.7552,98.0738 L140.9602,98.0738 C141.5002,98.1188 141.8242,98.4128 141.9322,98.9548 L141.9322,103.2868 L141.9322,110.3098 C141.9182,111.7008 141.9092,113.0838 141.9092,114.4588 L141.9092,114.5748 Z M153.4443,98.0494 C154.0153,98.1444 154.3473,98.4764 154.4413,99.0474 L154.4413,100.2524 C154.3473,100.8704 154.0083,101.1954 153.4213,101.2254 L147.9053,101.2254 C147.5963,101.2554 147.4253,101.4274 147.3943,101.7354 L147.3943,104.7254 C147.4253,105.0344 147.5963,105.1954 147.9053,105.2134 L151.4053,105.2134 C151.9753,105.2904 152.2943,105.6064 152.3553,106.1604 L152.3553,107.4134 C152.2943,108.0174 151.9683,108.3254 151.3813,108.3414 L147.9053,108.3414 C147.5963,108.3864 147.4253,108.5664 147.3943,108.8744 L147.3943,111.4454 L147.3943,114.4584 C147.3493,115.0454 147.0323,115.3724 146.4443,115.4334 L145.2623,115.4334 C144.7073,115.4034 144.3973,115.1164 144.3363,114.5744 L144.3363,111.4454 L144.3363,111.1464 L144.3363,100.1134 L144.3363,99.0254 C144.3503,98.4844 144.6213,98.1574 145.1473,98.0494 L153.4443,98.0494 Z"/>
    <path fill="#E15D44" fill-rule="nonzero" d="M37.4633 74.7409C37.6753 66.3569 43.1703 62.6929 45.0733 64.5259 46.9763 66.3569 46.2703 70.3019 42.6773 72.7679 39.0853 75.2339 37.4633 74.7409 37.4633 74.7409zM108.9743 42.2609C108.9743 42.2609 113.9783 29.2269 115.1753 35.5699 116.3703 41.9089 104.6763 60.7909 104.6763 60.7909 104.8173 56.5639 108.9743 42.2609 108.9743 42.2609zM114.9633 78.5439C111.6513 87.2129 103.6203 83.6879 103.6203 83.6879 103.6203 83.6879 102.7043 80.5879 105.3113 71.9219 107.9173 63.2579 114.0473 66.6369 114.0473 66.6369 114.0473 66.6369 118.2743 69.8799 114.9633 78.5439zM137.1553 74.7409C137.1553 74.7409 136.3813 71.9929 139.2693 66.7089 142.1573 61.4239 144.4143 64.3129 144.4143 64.3129 144.4143 64.3129 146.8783 66.9909 144.0613 71.0079 141.2423 75.0209 137.1553 74.7409 137.1553 74.7409z"/>
  </g>
</svg>

<svg height="132" viewBox="0 0 216 132" width="216" xmlns="http://www.w3.org/2000/svg"><g fill="none" fill-rule="evenodd" transform="translate(0 -1)"><path d="m131.076.999-131.076 51.156 5.083 51.824 145.675 28.179 65.224-31.87-12.161-42.68z" fill="#e15d44"/><g fill-rule="nonzero"><path d="m159.7715 100.9987h39.744l-39.744 8.754zm-59.9551 0v8.965l-40.701-8.965zm89.1929-27.6498c.283 2.817-1.409 3.781-1.409 3.781s-6.976 5.215-12.328 3.664c-5.355-1.55-5.637-11.215-5.637-11.215h-.495l-5.424 14.892s-2.182 7.459-5.424 6.121c-3.241-1.34-3.171-5.147-3.171-5.147s-5.071 5.84-14.373 5.137c-8.136-.616-10.765-7.286-10.765-7.286s-5.438 4.037-20.731 7.047c-6.841.745-11.691-3.433-11.691-3.433-.635.636-4.721 2.588-4.721 2.588s-5.847 2.502-8.102-1.583c-2.254-4.083-.775-17.336-.775-17.336h-.423s-3.382 7.262-5.144 13.462c-1.76 6.2-3.946 6.197-3.946 6.197s-4.014.35-4.93-3.031c-.916-3.382 1.481-15.926 1.481-15.926l-.354.059s-.211-.368-3.309 6.187c-5.285 12.821-6.553 13.35-9.583 12.794-3.031-.558-3.17-4.443-3.17-4.443l-4.156 2.186s-10.145 4.102-15.427.088c-3.519-2.674-4.723-5.573-5.138-8.573h.002s-4.499.052-7.388-1.076c-2.89-1.129.022-4.256.022-4.256s.888-1.407 2.578 0c1.692 1.407 4.848.773 4.848.773.281-2.221.75-5.152 2.127-8.247 2.889-6.483 7.313-8.673 10.906-8.744 3.592-.07 6.13.904 8.314 4.004 4.861 12.049-12.963 18.148-12.963 18.148s-.494 3.154 4.367 3.084c4.862-.068 12.259-5.355 12.259-5.355.353-4.015 3.171-16.627 3.945-18.527.775-1.904 3.735-1.551 3.735-1.551s2.325-.494 2.747 1.971c.422 2.467-1.69 12.471-1.69 12.471l.351.425c.212-.988 5.355-9.583 5.355-9.583s2.959-5.143 7.469-4.933c4.508.211-.212 14.023-.212 14.023l.352.422.353-.635c.564-1.553 7.256-11.695 7.256-11.695s2.537-2.96 4.861-2.256c2.324.705 2.466 1.761 2.608 3.736.14 1.971-1.832 13.665-1.832 13.665s-1.128 7.68 1.408 7.539c2.537-.138 5.284-2.816 5.284-2.816s1.973-15.078 3.312-27.547c1.339-12.471 7.116-20.855 7.116-20.855s1.689-2.607 6.154-4.37c2.941-1.036 6.147-.346 7.654 6.061 3.171 13.455-11.131 29.378-11.131 29.378s3.804-6.058 8.596-3.169c10.567 6.62 1.902 21.207 1.902 21.207 3.1-.987 8.665-4.721 8.665-4.721s.113-1.61.177-1.979c1.891-10.833 8.379-14.743 9.593-15.658 1.257-.944 12.352-5.191 12.845 6.293s-13.878 15.5-13.878 15.5 1.27 3.313 6.552 2.466c5.283-.844 11.342-5.988 11.342-5.988.211-4.72 3.313-15.993 3.946-17.614.634-1.62 4.509-1.691 4.933-.776.563 1.833.068 9.865.068 9.865l.423-.142c1.552-4.578 4.791-8.17 4.791-8.17s2.607-2.537 4.721-1.921c2.113.619 1.34 7.98 1.34 7.98s-1.126 8.035 2.464 8.388c3.593.351 7.68-2.815 7.68-2.815s2.535-1.051 2.818 1.77zm-72.0054 30.6586c-.108.571-.44.903-.997.995h-1.228c-.588-.06-.919-.386-.996-.973v-.925c-.109-1.16-.742-1.81-1.901-1.948-1.22.138-1.885.788-1.993 1.948v7.437c.108 1.206.773 1.863 1.993 1.972 1.159-.109 1.792-.766 1.901-1.972v-.995c.077-.587.425-.911 1.043-.975h1.136c.586.079.934.403 1.042.975v.995c-.356 3.091-2.063 4.776-5.122 5.053-3.121-.247-4.806-1.932-5.053-5.053v-7.509c.233-3.121 1.917-4.842 5.053-5.168 3.091.326 4.798 2.047 5.122 5.168zm7.3043-6.1424c3.107.309 4.814 2.016 5.123 5.123v7.554c-.324 3.09-2.032 4.775-5.123 5.052-3.089-.293-4.781-1.976-5.075-5.052v-7.554c.263-3.107 1.955-4.814 5.075-5.123zm1.994 12.699v-7.484c-.125-1.206-.788-1.863-1.994-1.971-1.204.124-1.861.781-1.969 1.971v7.484c.108 1.206.765 1.849 1.969 1.927 1.206-.078 1.869-.721 1.994-1.927zm15.607 4.0107c-.015.542-.293.812-.834.812h-.139-.185-.927-.093-.138c-.635.031-1.075-.239-1.323-.812-1.158-2.719-2.301-5.438-3.429-8.158v6.328 1.669c-.062.601-.386.926-.974.973h-1.182c-.556-.047-.865-.341-.927-.881v-15.691-.114c.031-.466.294-.674.788-.627h.324.905.232c.618-.047 1.074.225 1.367.81 1.112 2.768 2.248 5.517 3.406 8.253v-8.089c.063-.572.387-.896.975-.974h1.205c.54.045.864.339.972.881v4.332 7.023c-.014 1.391-.023 2.774-.023 4.149zm11.5351-16.5254c.571.095.903.427.997.998v1.205c-.094.618-.433.943-1.02.973h-5.516c-.309.03-.48.202-.511.51v2.99c.031.309.202.47.511.488h3.5c.57.077.889.393.95.947v1.253c-.061.604-.387.912-.974.928h-3.476c-.309.045-.48.225-.511.533v2.571 3.013c-.045.587-.362.914-.95.975h-1.182c-.555-.03-.865-.317-.926-.859v-3.129-.299-11.033-1.088c.014-.541.285-.868.811-.976z" fill="#fefefe"/><path d="m37.4633 74.7409c.212-8.384 5.707-12.048 7.61-10.215 1.903 1.831 1.197 5.776-2.396 8.242-3.592 2.466-5.214 1.973-5.214 1.973zm71.511-32.48s5.004-13.034 6.201-6.691c1.195 6.339-10.499 25.221-10.499 25.221.141-4.227 4.298-18.53 4.298-18.53zm5.989 36.283c-3.312 8.669-11.343 5.144-11.343 5.144s-.916-3.1 1.691-11.766c2.606-8.664 8.736-5.285 8.736-5.285s4.227 3.243.916 11.907zm22.192-3.803s-.774-2.748 2.114-8.032c2.888-5.285 5.145-2.396 5.145-2.396s2.464 2.678-.353 6.695c-2.819 4.013-6.906 3.733-6.906 3.733z" fill="#e15d44"/></g></g></svg>
